X: 39390
T: Taoing The Mark
R: jig
M: 6/8
K: Eminor
EFG FED|EGc B2 G|AFB GEB|AGF ^DEF|
EFG FED|EGc B2 G|AFB GEB|AGF E2:|
eBG EGe|dBc d2 B|AFB GEB|
1 AGF ^DEF|eBG EGe|dBc d2 G|AFB GEB|AFG F/B/^d/f/g/f/:|
2 AFG AB^d|efg agf|eBG EBG|AFB ^DEF|AFG E2||

